src/lib/packages/icons/src/assets/filled/microscope.svg

<svg width="24" height="24" viewBox="0 0 24 24" fill="none" xmlns="http://www.w3.org/2000/svg">
<path d="M19.75 21C19.75 21.414 19.414 21.75 19 21.75H6C5.586 21.75 5.25 21.414 5.25 21C5.25 20.586 5.586 20.25 6 20.25H11.75V19.7329C9.594 19.6519 7.60701 18.535 6.41101 16.75H5C4.586 16.75 4.25 16.414 4.25 16C4.25 15.586 4.586 15.25 5 15.25H10C10.414 15.25 10.75 15.586 10.75 16C10.75 16.414 10.414 16.75 10 16.75H8.33496C9.30196 17.695 10.614 18.25 12 18.25C14.895 18.25 17.25 15.895 17.25 13C17.25 11.426 16.557 9.96806 15.349 8.96706L12.6591 11.657C12.2661 12.051 11.857 12.25 11.443 12.25C11.029 12.25 10.62 12.05 10.226 11.657L9.11096 10.542C8.31496 9.74602 8.31496 8.90391 9.11096 8.10891L13.877 3.34304C14.539 2.68204 15.231 2.57814 15.903 3.01614C15.928 2.86814 15.984 2.72291 16.099 2.60891C16.392 2.31591 16.867 2.31591 17.16 2.60891L18.16 3.60891C18.453 3.90191 18.453 4.37695 18.16 4.66995C18.045 4.78495 17.9 4.84099 17.752 4.86599C17.924 5.13199 18.02 5.40207 18.02 5.67507C18.02 6.08907 17.82 6.49814 17.426 6.89114L16.412 7.90505C17.897 9.18905 18.751 11.022 18.751 13C18.751 16.295 16.377 19.0409 13.251 19.6289V20.25H19.001C19.414 20.25 19.75 20.586 19.75 21ZM8.51404 12.907C8.93804 13.331 9.34795 13.331 9.77295 12.907C9.77295 12.907 9.82199 12.858 9.88599 12.794C9.95699 12.723 9.93603 12.631 9.87903 12.575L8.19604 10.8921C8.13905 10.8351 8.04805 10.814 7.97705 10.885C7.91305 10.949 7.86401 10.9981 7.86401 10.9981C7.44001 11.4221 7.44001 11.8321 7.86401 12.2571L8.51404 12.907Z" fill="currentColor"/>
</svg>

<svg xmlns="http://www.w3.org/2000/svg" width="24" height="24" fill="none"><path fill="currentColor" d="M19.75 21a.75.75 0 0 1-.75.75H6a.75.75 0 0 1 0-1.5h5.75v-.517a6.741 6.741 0 0 1-5.339-2.983H5a.75.75 0 0 1 0-1.5h5a.75.75 0 0 1 0 1.5H8.335A5.253 5.253 0 0 0 12 18.25 5.256 5.256 0 0 0 17.25 13a5.207 5.207 0 0 0-1.901-4.033l-2.69 2.69c-.393.394-.802.593-1.216.593-.414 0-.823-.2-1.217-.593l-1.115-1.115c-.796-.796-.796-1.638 0-2.433l4.766-4.766c.662-.661 1.354-.765 2.026-.327a.728.728 0 0 1 .196-.407.75.75 0 0 1 1.061 0l1 1a.75.75 0 0 1 0 1.061.734.734 0 0 1-.408.196c.172.266.268.536.268.81 0 .413-.2.822-.594 1.215l-1.014 1.014A6.699 6.699 0 0 1 18.751 13c0 3.295-2.374 6.04-5.5 6.629v.621h5.75a.75.75 0 0 1 .749.75ZM8.514 12.907c.424.424.834.424 1.259 0l.113-.113c.071-.071.05-.163-.007-.219l-1.683-1.683c-.057-.057-.148-.078-.219-.007l-.113.113c-.424.424-.424.834 0 1.26l.65.649Z"/></svg>
